images/shopping-bag.svg

<svg width="30" height="30" viewBox="0 0 30 30" fill="none" xmlns="http://www.w3.org/2000/svg">
<path d="M23.75 8.75H20V7.5C20 6.17392 19.4732 4.90215 18.5355 3.96447C17.5979 3.02678 16.3261 2.5 15 2.5C13.6739 2.5 12.4021 3.02678 11.4645 3.96447C10.5268 4.90215 10 6.17392 10 7.5V8.75H6.25C5.91848 8.75 5.60054 8.8817 5.36612 9.11612C5.1317 9.35054 5 9.66848 5 10V23.75C5 24.7446 5.39509 25.6984 6.09835 26.4017C6.80161 27.1049 7.75544 27.5 8.75 27.5H21.25C22.2446 27.5 23.1984 27.1049 23.9017 26.4017C24.6049 25.6984 25 24.7446 25 23.75V10C25 9.66848 24.8683 9.35054 24.6339 9.11612C24.3995 8.8817 24.0815 8.75 23.75 8.75ZM12.5 7.5C12.5 6.83696 12.7634 6.20107 13.2322 5.73223C13.7011 5.26339 14.337 5 15 5C15.663 5 16.2989 5.26339 16.7678 5.73223C17.2366 6.20107 17.5 6.83696 17.5 7.5V8.75H12.5V7.5ZM22.5 23.75C22.5 24.0815 22.3683 24.3995 22.1339 24.6339C21.8995 24.8683 21.5815 25 21.25 25H8.75C8.41848 25 8.10054 24.8683 7.86612 24.6339C7.6317 24.3995 7.5 24.0815 7.5 23.75V11.25H10V12.5C10 12.8315 10.1317 13.1495 10.3661 13.3839C10.6005 13.6183 10.9185 13.75 11.25 13.75C11.5815 13.75 11.8995 13.6183 12.1339 13.3839C12.3683 13.1495 12.5 12.8315 12.5 12.5V11.25H17.5V12.5C17.5 12.8315 17.6317 13.1495 17.8661 13.3839C18.1005 13.6183 18.4185 13.75 18.75 13.75C19.0815 13.75 19.3995 13.6183 19.6339 13.3839C19.8683 13.1495 20 12.8315 20 12.5V11.25H22.5V23.75Z" fill="#FF6652"/>
</svg>

<svg xmlns="http://www.w3.org/2000/svg" width="30" height="30" fill="none"><path fill="#FF6652" d="M23.75 8.75H20V7.5a5 5 0 0 0-10 0v1.25H6.25A1.25 1.25 0 0 0 5 10v13.75a3.75 3.75 0 0 0 3.75 3.75h12.5A3.75 3.75 0 0 0 25 23.75V10a1.25 1.25 0 0 0-1.25-1.25ZM12.5 7.5a2.5 2.5 0 0 1 5 0v1.25h-5V7.5Zm10 16.25A1.25 1.25 0 0 1 21.25 25H8.75a1.25 1.25 0 0 1-1.25-1.25v-12.5H10v1.25a1.25 1.25 0 0 0 2.5 0v-1.25h5v1.25a1.25 1.25 0 0 0 2.5 0v-1.25h2.5v12.5Z"/></svg>
